packages/kaspersky-hexa-ui-icons/src/iconsSVGs/16/Router.svg

<svg width="16" height="16" viewBox="0 0 16 16" fill="none" xmlns="http://www.w3.org/2000/svg">
<path d="M5.08145 4.39559L5.08381 4.39256C5.09529 4.37796 5.14263 4.31941 5.22608 4.23588C5.33763 4.12424 5.51223 3.96934 5.75189 3.81276C6.22745 3.50206 6.96557 3.17988 7.99941 3.17988C9.03325 3.17988 9.77136 3.50206 10.2469 3.81276C10.4866 3.96934 10.6612 4.12424 10.7727 4.23588C10.8284 4.29159 10.8679 4.3361 10.8916 4.36402C10.9034 4.37796 10.9112 4.3877 10.915 4.39256L10.9174 4.3956C11.1305 4.68175 11.5349 4.74281 11.8231 4.53147C12.1031 4.32606 12.1708 3.93857 11.9826 3.65144C11.9763 3.64181 11.9697 3.6323 11.9628 3.62292C11.9376 3.58886 11.9108 3.55597 11.8834 3.52365C11.8386 3.47077 11.7751 3.39985 11.6924 3.31705C11.5271 3.15168 11.2836 2.93722 10.958 2.72444C10.3028 2.29642 9.32131 1.87988 7.99941 1.87988C6.6775 1.87988 5.696 2.29642 5.04086 2.72444C4.71519 2.93722 4.47167 3.15168 4.30644 3.31705C4.20392 3.41966 4.0959 3.52968 4.01596 3.65183C3.82806 3.93893 3.89579 4.32615 4.17576 4.53147C4.46394 4.74282 4.86837 4.68174 5.08145 4.39559Z" fill="black"/>
<path d="M5.25059 11.465C5.25059 11.8793 4.9148 12.215 4.50059 12.215C4.08637 12.215 3.75059 11.8793 3.75059 11.465C3.75059 11.0508 4.08637 10.715 4.50059 10.715C4.9148 10.715 5.25059 11.0508 5.25059 11.465Z" fill="black"/>
<path d="M7.24961 12.215C7.66382 12.215 7.99961 11.8793 7.99961 11.465C7.99961 11.0508 7.66382 10.715 7.24961 10.715C6.8354 10.715 6.49961 11.0508 6.49961 11.465C6.49961 11.8793 6.8354 12.215 7.24961 12.215Z" fill="black"/>
<path fill-rule="evenodd" clip-rule="evenodd" d="M1.00586 10.2351C1.00586 8.99245 2.01322 7.98509 3.25586 7.98509H12.7434C13.986 7.98509 14.9934 8.99245 14.9934 10.2351V12.695C14.9934 13.9376 13.986 14.945 12.7434 14.945H3.25586C2.01322 14.945 1.00586 13.9376 1.00586 12.695V10.2351ZM3.25586 9.28509C2.73119 9.28509 2.30586 9.71042 2.30586 10.2351V12.695C2.30586 13.2197 2.73119 13.645 3.25586 13.645H12.7434C13.268 13.645 13.6934 13.2197 13.6934 12.695V10.2351C13.6934 9.71042 13.268 9.28509 12.7434 9.28509H3.25586Z" fill="black"/>
<path d="M6.06345 6.56812C6.34983 6.77814 6.75101 6.71915 6.96512 6.43758L6.96687 6.4355C6.97174 6.42975 6.98299 6.41692 7.00068 6.39921C7.03629 6.36357 7.09616 6.31002 7.18071 6.25478C7.34602 6.14678 7.61231 6.02729 7.99978 6.02729C8.38725 6.02729 8.65354 6.14678 8.81886 6.25478C8.90341 6.31002 8.96328 6.36357 8.99889 6.39921C9.01657 6.41692 9.02783 6.42975 9.0327 6.4355L9.03444 6.43758C9.24855 6.71915 9.64973 6.77814 9.93611 6.56812C10.215 6.36355 10.2833 5.97842 10.098 5.69165C9.95987 5.47795 9.73982 5.30362 9.52989 5.16647C9.18499 4.94114 8.67532 4.72729 7.99978 4.72729C7.32425 4.72729 6.81457 4.94114 6.46967 5.16647C6.26257 5.30177 6.04113 5.47812 5.90342 5.68884C5.71581 5.9759 5.7836 6.36288 6.06345 6.56812Z" fill="black"/>
</svg>

<svg xmlns="http://www.w3.org/2000/svg" width="16" height="16" fill="none" viewBox="0 0 16 16"><path fill="#000" fill-rule="evenodd" d="m5.0815 4.3956.0023-.003a1.9 1.9 0 0 1 .1423-.1567c.1115-.1117.2861-.2666.5258-.4231.4756-.3107 1.2137-.633 2.2475-.633s1.772.3223 2.2475.633c.2397.1565.4143.3114.5258.423.0557.0558.0952.1003.1189.1282a1 1 0 0 1 .0234.0286l.0024.003a.65.65 0 0 0 1.0454-.7727 2 2 0 0 0-.0794-.0993 3.5 3.5 0 0 0-.191-.2066c-.1653-.1653-.4088-.3798-.7344-.5926-.6552-.428-1.6367-.8445-2.9586-.8445s-2.3034.4165-2.9585.8445c-.3257.2128-.5692.4273-.7345.5926-.1025.1027-.2105.2127-.2904.3348a.65.65 0 0 0 1.0655.7438m.982 2.1725a.65.65 0 0 0 .9016-.1305l.0018-.0021a.6.6 0 0 1 .0338-.0363 1.13 1.13 0 0 1 .18-.1444c.1653-.108.4316-.2275.819-.2275.3876 0 .6538.1195.8192.2275.0845.0552.1444.1088.18.1444a.6.6 0 0 1 .0338.0363l.0017.002a.65.65 0 0 0 1.0636-.7459c-.1381-.2137-.3582-.388-.5681-.5251-.3449-.2254-.8546-.4392-1.5301-.4392s-1.1852.2138-1.5301.4392c-.2071.1353-.4286.3116-.5663.5223a.65.65 0 0 0 .16.8793m-5.0576 3.667c0-1.2426 1.0073-2.25 2.25-2.25h9.4875c1.2426 0 2.25 1.0073 2.25 2.25v2.4599c0 1.2426-1.0074 2.25-2.25 2.25H3.2559c-1.2427 0-2.25-1.0074-2.25-2.25zm2.25-.95a.95.95 0 0 0-.95.95v2.4599a.95.95 0 0 0 .95.95h9.4875c.5246 0 .95-.4254.95-.95v-2.4599a.95.95 0 0 0-.95-.95zm1.2447 2.9299a.75.75 0 1 0 0-1.5.75.75 0 0 0 0 1.5m3.499-.75a.75.75 0 0 1-.75.75.75.75 0 1 1 .75-.75"/></svg>
